storage/app/icons/phosphoricons/duotone/download-duotone.svg

<svg xmlns="http://www.w3.org/2000/svg" fill="currentColor" viewBox="0 0 256 256"><path d="M232 136v64a8 8 0 0 1-8 8H32a8 8 0 0 1-8-8v-64a8 8 0 0 1 8-8h192a8 8 0 0 1 8 8" opacity=".2"/><path d="M240 136v64a16 16 0 0 1-16 16H32a16 16 0 0 1-16-16v-64a16 16 0 0 1 16-16h40a8 8 0 0 1 0 16H32v64h192v-64h-40a8 8 0 0 1 0-16h40a16 16 0 0 1 16 16m-117.66-2.34a8 8 0 0 0 11.32 0l48-48a8 8 0 0 0-11.32-11.32L136 108.69V24a8 8 0 0 0-16 0v84.69L85.66 74.34a8 8 0 0 0-11.32 11.32ZM200 168a12 12 0 1 0-12 12 12 12 0 0 0 12-12"/></svg>

<svg xmlns="http://www.w3.org/2000/svg" viewBox="0 0 256 256" fill="currentColor"><path d="M232,136v64a8,8,0,0,1-8,8H32a8,8,0,0,1-8-8V136a8,8,0,0,1,8-8H224A8,8,0,0,1,232,136Z" opacity="0.2"/><path d="M240,136v64a16,16,0,0,1-16,16H32a16,16,0,0,1-16-16V136a16,16,0,0,1,16-16H72a8,8,0,0,1,0,16H32v64H224V136H184a8,8,0,0,1,0-16h40A16,16,0,0,1,240,136Zm-117.66-2.34a8,8,0,0,0,11.32,0l48-48a8,8,0,0,0-11.32-11.32L136,108.69V24a8,8,0,0,0-16,0v84.69L85.66,74.34A8,8,0,0,0,74.34,85.66ZM200,168a12,12,0,1,0-12,12A12,12,0,0,0,200,168Z"/></svg>
